X:60
T:Ghost of Bunglass (air)
B:NFID.091a
060ghost
S:JD
Z:Robinson/Black
L:1/8
M:6/8
R:jig
Q:220
K:G
DEF|: G2G G2D|G2G G2B|d2B g2B|A2G E2D|
G2G G2D|G2G G2E|D2C B,2A,|1 G,3-G,2D:|2 G,3-G,2f||
g2a b2g|e2d B2d|g2a b2g|e3 e2g|
fga d2g|fga d2f|ecA dAF|1 G3-GBd:|2 HG6|]

%%%

